build/images/fb-icons/link.svg

<svg xmlns="http://www.w3.org/2000/svg" preserveAspectRatio="xMidYMid" width="15" height="15" viewBox="0 0 15 15"><defs><style>.cls-1{fill:#646464;fill-rule:evenodd}</style></defs><path d="M13.815 7.532l-2.43 2.431c-.147.145-.395.133-.554-.026L9.195 8.3l1.363-1.364.455.454 1.331-1.331c.841-.841.773-2.273-.151-3.197l-.05-.05c-.924-.924-2.355-.992-3.196-.151L7.616 3.993l.456.456-1.363 1.364-1.637-1.637c-.159-.161-.171-.409-.026-.554l2.428-2.43C8.238.427 9.284.036 10.418.09c1.135.054 2.222.545 3.062 1.385l.051.05c.84.84 1.332 1.928 1.385 3.062.054 1.135-.337 2.181-1.101 2.945zM6.37 10.026l-.395.395a.854.854 0 0 1-.65.243 1.024 1.024 0 0 1-.676-.305c-.384-.384-.412-.98-.063-1.329l.395-.395 1.314-1.314.961-.961 1.363-1.364.397-.395a.854.854 0 0 1 .65-.243c.241.011.483.113.676.305.384.384.412.98.061 1.328l-.395.396-1.364 1.364-.961.961-1.313 1.314zM4.432 8.084l-.454-.454-1.331 1.331c-.841.841-.773 2.273.151 3.198l.049.049c.925.924 2.356.992 3.197.151l1.331-1.332-.455-.454 1.314-1.314 1.636 1.637c.16.161.171.409.026.554l-2.379 2.38c-.764.765-1.81 1.156-2.945 1.102-1.134-.054-2.222-.545-3.061-1.385l-.052-.052C.62 12.655.128 11.568.074 10.433.021 9.298.412 8.252 1.176 7.488l2.379-2.38c.147-.145.395-.134.554.026L5.746 6.77 4.432 8.084z" class="cls-1"/></svg>

<svg xmlns="http://www.w3.org/2000/svg" xmlns:xlink="http://www.w3.org/1999/xlink" preserveAspectRatio="xMidYMid" width="15" height="15" viewBox="0 0 15 15">
  <defs>
    <style>
      .cls-1 {
        fill: #646464;
        fill-rule: evenodd;
      }
    </style>
  </defs>
  <path d="M13.815,7.532 L11.385,9.963 C11.238,10.108 10.990,10.096 10.831,9.937 L9.195,8.300 L10.558,6.936 L11.013,7.390 L12.344,6.059 C13.185,5.218 13.117,3.786 12.193,2.862 L12.143,2.812 C11.219,1.888 9.788,1.820 8.947,2.661 L7.616,3.993 L8.072,4.449 L6.709,5.813 L5.072,4.176 C4.913,4.015 4.901,3.767 5.046,3.622 L7.474,1.192 C8.238,0.427 9.284,0.036 10.418,0.090 C11.553,0.144 12.640,0.635 13.480,1.475 L13.531,1.525 C14.371,2.365 14.863,3.453 14.916,4.587 C14.970,5.722 14.579,6.768 13.815,7.532 ZM6.370,10.026 L5.975,10.421 C5.801,10.595 5.565,10.675 5.325,10.664 C5.084,10.653 4.841,10.551 4.649,10.359 C4.265,9.975 4.237,9.379 4.586,9.030 L4.981,8.635 L6.295,7.321 L7.256,6.360 L8.619,4.996 L9.016,4.601 C9.190,4.427 9.426,4.347 9.666,4.358 C9.907,4.369 10.149,4.471 10.342,4.663 C10.726,5.047 10.754,5.643 10.403,5.991 L10.008,6.387 L8.644,7.751 L7.683,8.712 L6.370,10.026 ZM4.432,8.084 L3.978,7.630 L2.647,8.961 C1.806,9.802 1.874,11.234 2.798,12.159 L2.847,12.208 C3.772,13.132 5.203,13.200 6.044,12.359 L7.375,11.027 L6.920,10.573 L8.234,9.259 L9.870,10.896 C10.030,11.057 10.041,11.305 9.896,11.450 L7.517,13.830 C6.753,14.595 5.707,14.986 4.572,14.932 C3.438,14.878 2.350,14.387 1.511,13.547 L1.459,13.495 C0.620,12.655 0.128,11.568 0.074,10.433 C0.021,9.298 0.412,8.252 1.176,7.488 L3.555,5.108 C3.702,4.963 3.950,4.974 4.109,5.134 L5.746,6.770 L4.432,8.084 Z" class="cls-1"/>
</svg>
